X: 16691
T: Happy Clap, The
R: jig
M: 6/8
K: Dmajor
"D/F#"dBA "A/E"F2"D/F#"E|FA"G"d f2"A/E"e|fd"D/F#"d ed"G"f-|fed BAB|
"D/F#"dBA "A/E"F2"D/F#"E|FA"G"d f2"A/E"e|fa"G"b afe|1 dBA Bfe:|2 dBA Bde||
"D"f2a afe|afb afe|faa afe|dBA "G"Bde|
"D"f2a afe|afb afe|fed BAB|def "G"f2e:|

